svgs/sharp-solid/tachograph-digital.svg

<svg xmlns="http://www.w3.org/2000/svg" viewBox="0 0 640 512"><!--! Font Awesome Pro 6.6.0 by @fontawesome - https://fontawesome.com License - https://fontawesome.com/license (Commercial License) Copyright 2024 Fonticons, Inc. --><path d="M640 64L0 64 0 448l640 0 0-384zM352 128l0 128L64 256l0-128 288 0zM64 352l16 0 256 0 16 0 0 32-16 0L80 384l-16 0 0-32zm320 0l16 0 160 0 16 0 0 32-16 0-160 0-16 0 0-32zM96 288l0 32-32 0 0-32 32 0zm32 0l32 0 0 32-32 0 0-32zm96 0l0 32-32 0 0-32 32 0zm32 0l32 0 0 32-32 0 0-32zm96 0l0 32-32 0 0-32 32 0z"/></svg>

<svg xmlns="http://www.w3.org/2000/svg" viewBox="0 0 640 512"><!--! Font Awesome Pro 6.4.2 by @fontawesome - https://fontawesome.com License - https://fontawesome.com/license (Commercial License) Copyright 2023 Fonticons, Inc. --><path d="M640 64H0V448H640V64zM352 128V256H64V128H352zM64 352H80 336h16v32H336 80 64V352zm320 0h16H560h16v32H560 400 384V352zM96 288v32H64V288H96zm32 0h32v32H128V288zm96 0v32H192V288h32zm32 0h32v32H256V288zm96 0v32H320V288h32z"/></svg>
